src/assets/play-pause.svg

<?xml version="1.0" encoding="utf-8"?><!-- Uploaded to: SVG Repo, www.svgrepo.com, Generator: SVG Repo Mixer Tools -->
<svg width="800px" height="800px" viewBox="0 0 24 24" fill="none" xmlns="http://www.w3.org/2000/svg">
<path d="M15 5V19M21 5V19M3 7.20608V16.7939C3 17.7996 3 18.3024 3.19886 18.5352C3.37141 18.7373 3.63025 18.8445 3.89512 18.8236C4.20038 18.7996 4.55593 18.4441 5.26704 17.733L10.061 12.939C10.3897 12.6103 10.554 12.446 10.6156 12.2565C10.6697 12.0898 10.6697 11.9102 10.6156 11.7435C10.554 11.554 10.3897 11.3897 10.061 11.061L5.26704 6.26704C4.55593 5.55593 4.20038 5.20038 3.89512 5.17636C3.63025 5.15551 3.37141 5.26273 3.19886 5.46476C3 5.69759 3 6.20042 3 7.20608Z" stroke="currentColor" stroke-width="2" stroke-linecap="round" stroke-linejoin="round"/>
</svg>

<svg width="800" height="800" viewBox="0 0 24 24" fill="none" xmlns="http://www.w3.org/2000/svg"><path d="M15 5v14m6-14v14M3 7.206v9.588c0 1.006 0 1.508.199 1.741a.83.83 0 00.696.289c.305-.024.66-.38 1.372-1.091l4.794-4.794c.329-.329.493-.493.555-.682a.831.831 0 000-.514c-.062-.189-.226-.353-.555-.682L5.267 6.267C4.556 5.556 4.2 5.2 3.895 5.177a.83.83 0 00-.696.288C3 5.698 3 6.2 3 7.206z" stroke="currentColor" stroke-width="2" stroke-linecap="round" stroke-linejoin="round"/></svg>
